lib/brands/icons/ms-outlook.svg

<svg xmlns="http://www.w3.org/2000/svg" fill="none" aria-hidden="true" viewBox="0 0 48 48"><g id="ms-outlook-Icon"><g id="Group"><g id="rectangle"><rect width="20" height="28" x="18" y="10" fill="#1066B5" rx="2"/><rect width="20" height="28" x="18" y="10" fill="url(#paint0_linear_94_16630)" rx="2"/></g><rect id="rectangle_2" width="10" height="10" x="18" y="13" fill="#32A9E7"/><rect id="rectangle_3" width="10" height="10" x="18" y="23" fill="#167EB4"/><rect id="rectangle_4" width="10" height="10" x="28" y="23" fill="#32A9E7"/><rect id="rectangle_5" width="10" height="10" x="28" y="13" fill="#58D9FD"/><g id="Mask Group"><mask id="mask0_94_16630" width="24" height="16" x="16" y="22" maskUnits="userSpaceOnUse" style="mask-type:alpha"><path id="Rectangle 3" fill="url(#paint1_linear_94_16630)" d="M16 22H38C39.1046 22 40 22.8954 40 24V36C40 37.1046 39.1046 38 38 38H18C16.8954 38 16 37.1046 16 36V22Z"/></mask><g mask="url(#mask0_94_16630)"><path id="vector" fill="#135298" d="M40 22V26H38V22H40Z"/><path id="vector_2" fill="url(#paint2_linear_94_16630)" d="M40 38V24L15 38H40Z"/><path id="vector_3" fill="url(#paint3_linear_94_16630)" d="M16 38V24L41 38H16Z"/></g></g><path id="rectangle_6" fill="black" fill-opacity="0.3" d="M16 20C16 18.3431 17.3431 17 19 17H25C26.6569 17 28 18.3431 28 20V32C28 33.6569 26.6569 35 25 35H16V20Z"/><rect id="rectangle_7" width="18" height="18" x="8" y="15" fill="url(#paint4_linear_94_16630)" rx="2"/><path id="O" fill="white" d="M22 24.0693V23.903C22 21.0222 19.9272 19 17.0158 19C14.0886 19 12 21.036 12 23.9307V24.097C12 26.9778 14.0728 29 17 29C19.9114 29 22 26.964 22 24.0693ZM19.6424 24.097C19.6424 26.0083 18.5665 27.1579 17.0158 27.1579C15.4652 27.1579 14.3734 25.9806 14.3734 24.0693V23.903C14.3734 21.9917 15.4494 20.8421 17 20.8421C18.5348 20.8421 19.6424 22.0194 19.6424 23.9307V24.097Z"/></g></g><defs><linearGradient id="paint0_linear_94_16630" x1="18" x2="38" y1="24" y2="24" gradientUnits="userSpaceOnUse"><stop stop-color="#064484"/><stop offset="1" stop-color="#0F65B5"/></linearGradient><linearGradient id="paint1_linear_94_16630" x1="16" x2="40" y1="34.7692" y2="34.7692" gradientUnits="userSpaceOnUse"><stop stop-color="#1B366F"/><stop offset="1" stop-color="#2657B0"/></linearGradient><linearGradient id="paint2_linear_94_16630" x1="40" x2="16" y1="31" y2="31" gradientUnits="userSpaceOnUse"><stop stop-color="#44DCFD"/><stop offset="0.453125" stop-color="#259ED0"/></linearGradient><linearGradient id="paint3_linear_94_16630" x1="16" x2="40" y1="31" y2="31" gradientUnits="userSpaceOnUse"><stop stop-color="#259ED0"/><stop offset="1" stop-color="#44DCFD"/></linearGradient><linearGradient id="paint4_linear_94_16630" x1="8" x2="26" y1="24" y2="24" gradientUnits="userSpaceOnUse"><stop stop-color="#064484"/><stop offset="1" stop-color="#0F65B5"/></linearGradient></defs></svg>

<svg xmlns="http://www.w3.org/2000/svg" fill="none" aria-hidden="true" viewBox="0 0 48 48"><rect width="20" height="28" x="18" y="10" fill="#1066B5" rx="2"/><rect width="20" height="28" x="18" y="10" fill="url(#a)" rx="2"/><path fill="#32A9E7" d="M18 13h10v10H18z"/><path fill="#167EB4" d="M18 23h10v10H18z"/><path fill="#32A9E7" d="M28 23h10v10H28z"/><path fill="#58D9FD" d="M28 13h10v10H28z"/><mask id="c" width="24" height="16" x="16" y="22" maskUnits="userSpaceOnUse" style="mask-type:alpha"><path fill="url(#b)" d="M16 22h22a2 2 0 0 1 2 2v12a2 2 0 0 1-2 2H18a2 2 0 0 1-2-2V22Z"/></mask><g mask="url(#c)"><path fill="#135298" d="M40 22v4h-2v-4h2Z"/><path fill="url(#d)" d="M40 38V24L15 38h25Z"/><path fill="url(#e)" d="M16 38V24l25 14H16Z"/></g><path fill="#000" fill-opacity=".3" d="M16 20a3 3 0 0 1 3-3h6a3 3 0 0 1 3 3v12a3 3 0 0 1-3 3h-9V20Z"/><rect width="18" height="18" x="8" y="15" fill="url(#f)" rx="2"/><path fill="#fff" d="M22 24.07v-.167C22 21.023 19.927 19 17.016 19 14.089 19 12 21.036 12 23.93v.167C12 26.977 14.073 29 17 29c2.911 0 5-2.036 5-4.93Zm-2.358.027c0 1.911-1.075 3.06-2.626 3.06-1.55 0-2.643-1.176-2.643-3.088v-.166c0-1.911 1.076-3.06 2.627-3.06 1.535 0 2.642 1.176 2.642 3.088v.166Z"/><defs><linearGradient id="a" x1="18" x2="38" y1="24" y2="24" gradientUnits="userSpaceOnUse"><stop stop-color="#064484"/><stop offset="1" stop-color="#0F65B5"/></linearGradient><linearGradient id="b" x1="16" x2="40" y1="34.769" y2="34.769" gradientUnits="userSpaceOnUse"><stop stop-color="#1B366F"/><stop offset="1" stop-color="#2657B0"/></linearGradient><linearGradient id="d" x1="40" x2="16" y1="31" y2="31" gradientUnits="userSpaceOnUse"><stop stop-color="#44DCFD"/><stop offset=".453" stop-color="#259ED0"/></linearGradient><linearGradient id="e" x1="16" x2="40" y1="31" y2="31" gradientUnits="userSpaceOnUse"><stop stop-color="#259ED0"/><stop offset="1" stop-color="#44DCFD"/></linearGradient><linearGradient id="f" x1="8" x2="26" y1="24" y2="24" gradientUnits="userSpaceOnUse"><stop stop-color="#064484"/><stop offset="1" stop-color="#0F65B5"/></linearGradient></defs></svg>
